X:7
T: Burnt Potatoes
C: Larry Cusick
M: C|
K: D
FEDB, A,B,DE | F2AF BFAF | EFAB edef | gfec dBAF |
FEDB, A,B,DE | F2AF BFAF | EFAB edef | gfec d4 :|
fd~d2 fdfg | af~f2 bfaf | ge~e2 geae | ABcd efge |
fd~d2 fdfg | af~f2 bfaf | ge~e2 geae | gfec d4 :|
